assets/svgs/misc-grey/MiscGrey77.svg

<svg width="29" height="32" viewBox="0 0 29 32" fill="none" xmlns="http://www.w3.org/2000/svg">
<path fill-rule="evenodd" clip-rule="evenodd" d="M4.67298 3.48601C4.42498 3.48601 4.20298 3.54101 4.01398 3.64801C3.47398 3.95701 3.16498 4.72401 3.16498 5.75001V26.5C3.16498 27.46 3.43298 28.196 3.88098 28.469C4.28598 28.717 4.94298 28.637 5.68498 28.251L24.499 17.179C25.133 16.76 25.512 16.143 25.476 15.525C25.439 14.897 24.976 14.314 24.205 13.928L6.14598 3.96401C5.60498 3.64601 5.10098 3.48601 4.67298 3.48601ZM4.42298 31.61C3.66398 31.61 2.95498 31.417 2.32298 31.032C0.930978 30.187 0.164978 28.577 0.164978 26.5V5.75001C0.164978 3.61701 1.02398 1.90201 2.52398 1.04501C3.99698 0.201007 5.85798 0.315007 7.62998 1.35701L25.602 11.273C27.28 12.114 28.372 13.648 28.471 15.351C28.57 17.042 27.677 18.678 26.083 19.726L7.13598 30.876C6.19098 31.367 5.27498 31.61 4.42298 31.61Z" fill="#1A1919"/>
</svg>

<svg xmlns="http://www.w3.org/2000/svg" fill="none" viewBox="0 0 29 32"><path fill="#1A1919" fill-rule="evenodd" d="M4.673 3.486c-.248 0-.47.055-.659.162-.54.309-.849 1.076-.849 2.102V26.5c0 .96.268 1.696.716 1.969.405.248 1.062.168 1.804-.218l18.814-11.072c.634-.419 1.013-1.036.977-1.654-.037-.628-.5-1.211-1.271-1.597L6.146 3.964c-.541-.318-1.045-.478-1.473-.478zm-.25 28.124a3.981 3.981 0 01-2.1-.578C.931 30.187.165 28.577.165 26.5V5.75c0-2.133.859-3.848 2.359-4.705 1.473-.844 3.334-.73 5.106.312l17.972 9.916c1.678.841 2.77 2.375 2.869 4.078.099 1.691-.794 3.327-2.388 4.375L7.136 30.876c-.945.491-1.861.734-2.713.734z" clip-rule="evenodd"/></svg>
